assets/svg/instagram.svg

<svg xmlns="http://www.w3.org/2000/svg" width="50" height="50" fill="none" viewBox="0 0 50 50"><defs><radialGradient id="b" cx="0" cy="0" r="1" gradientTransform="rotate(164.25 22.572 15.064)scale(31.9471 23.0164)" gradientUnits="userSpaceOnUse"><stop stop-color="#ff005f"/><stop offset="1" stop-color="#fc01d8"/></radialGradient><radialGradient id="c" cx="0" cy="0" r="1" gradientTransform="matrix(0 -39.911 42.3447 0 13.28 53.851)" gradientUnits="userSpaceOnUse"><stop stop-color="#fc0"/><stop offset=".124" stop-color="#fc0"/><stop offset=".567" stop-color="#fe4a05"/><stop offset=".694" stop-color="#ff0f3f"/><stop offset="1" stop-color="#fe0657" stop-opacity="0"/></radialGradient><radialGradient id="d" cx="0" cy="0" r="1" gradientTransform="rotate(-59.87 55.934 1.843)scale(16.5035 21.4858)" gradientUnits="userSpaceOnUse"><stop stop-color="#fc0"/><stop offset="1" stop-color="#fc0" stop-opacity="0"/></radialGradient><radialGradient id="e" cx="0" cy="0" r="1" gradientTransform="rotate(164.274 3.251 1.486)scale(31.5928 10.7637)" gradientUnits="userSpaceOnUse"><stop stop-color="#780cff"/><stop offset="1" stop-color="#820bff" stop-opacity="0"/></radialGradient></defs><mask id="a" width="50" height="50" x="0" y="0" mask-type="alpha" maskUnits="userSpaceOnUse"><path fill="#000" d="M0 0h50v50H0z"/></mask><g mask="url(#a)"><path fill="url(#b)" d="M25 0C14.57 0 11.51.01 10.92.06 8.78.23 7.45.57 5.99 1.29c-1.12.56-2 1.2-2.87 2.11C1.53 5.04.57 7.07.23 9.48.06 10.65.01 10.89 0 16.86c-.01 1.99 0 4.61 0 8.13 0 10.43.01 13.48.06 14.07.17 2.08.5 3.4 1.19 4.83 1.32 2.75 3.85 4.81 6.83 5.58 1.03.26 2.16.41 3.63.48.62.03 6.93.05 13.24.05s12.63-.01 13.23-.04c1.69-.08 2.68-.21 3.76-.5 3-.77 5.48-2.8 6.83-5.58.68-1.4 1.02-2.77 1.18-4.74.03-.43.05-7.3.05-14.16s-.02-13.72-.05-14.15c-.16-2.01-.51-3.36-1.21-4.78-.57-1.17-1.21-2.04-2.14-2.94C44.95 1.53 42.93.57 40.52.22 39.35.06 39.12.01 33.14 0z"/><path fill="url(#c)" d="M25 0C14.57 0 11.51.01 10.92.06 8.78.23 7.45.57 5.99 1.29c-1.12.56-2 1.2-2.87 2.11C1.53 5.04.57 7.07.23 9.48.06 10.65.01 10.89 0 16.86c-.01 1.99 0 4.61 0 8.13 0 10.43.01 13.48.06 14.07.17 2.08.5 3.4 1.19 4.83 1.32 2.75 3.85 4.81 6.83 5.58 1.03.26 2.16.41 3.63.48.62.03 6.93.05 13.24.05s12.63-.01 13.23-.04c1.69-.08 2.68-.21 3.76-.5 3-.77 5.48-2.8 6.83-5.58.68-1.4 1.02-2.77 1.18-4.74.03-.43.05-7.3.05-14.16s-.02-13.72-.05-14.15c-.16-2.01-.51-3.36-1.21-4.78-.57-1.17-1.21-2.04-2.14-2.94C44.95 1.53 42.93.57 40.52.22 39.35.06 39.12.01 33.14 0z"/><path fill="url(#d)" d="M25 0C14.57 0 11.51.01 10.92.06 8.78.23 7.45.57 5.99 1.29c-1.12.56-2 1.2-2.87 2.11C1.53 5.04.57 7.07.23 9.48.06 10.65.01 10.89 0 16.86c-.01 1.99 0 4.61 0 8.13 0 10.43.01 13.48.06 14.07.17 2.08.5 3.4 1.19 4.83 1.32 2.75 3.85 4.81 6.83 5.58 1.03.26 2.16.41 3.63.48.62.03 6.93.05 13.24.05s12.63-.01 13.23-.04c1.69-.08 2.68-.21 3.76-.5 3-.77 5.48-2.8 6.83-5.58.68-1.4 1.02-2.77 1.18-4.74.03-.43.05-7.3.05-14.16s-.02-13.72-.05-14.15c-.16-2.01-.51-3.36-1.21-4.78-.57-1.17-1.21-2.04-2.14-2.94C44.95 1.53 42.93.57 40.52.22 39.35.06 39.12.01 33.14 0z"/><path fill="url(#e)" d="M25 0C14.57 0 11.51.01 10.92.06 8.78.23 7.45.57 5.99 1.29c-1.12.56-2 1.2-2.87 2.11C1.53 5.04.57 7.07.23 9.48.06 10.65.01 10.89 0 16.86c-.01 1.99 0 4.61 0 8.13 0 10.43.01 13.48.06 14.07.17 2.08.5 3.4 1.19 4.83 1.32 2.75 3.85 4.81 6.83 5.58 1.03.26 2.16.41 3.63.48.62.03 6.93.05 13.24.05s12.63-.01 13.23-.04c1.69-.08 2.68-.21 3.76-.5 3-.77 5.48-2.8 6.83-5.58.68-1.4 1.02-2.77 1.18-4.74.03-.43.05-7.3.05-14.16s-.02-13.72-.05-14.15c-.16-2.01-.51-3.36-1.21-4.78-.57-1.17-1.21-2.04-2.14-2.94C44.95 1.53 42.93.57 40.52.22 39.35.06 39.12.01 33.14 0z"/><path fill="#fff" d="M25.01 6.42c-5.05 0-5.69.02-7.67.11s-3.33.4-4.51.86a9.2 9.2 0 0 0-3.3 2.14 9.3 9.3 0 0 0-2.14 3.29c-.46 1.18-.78 2.53-.86 4.51-.09 1.98-.12 2.62-.12 7.66 0 5.05.03 5.68.12 7.66s.4 3.33.86 4.51a9.1 9.1 0 0 0 2.14 3.29c1.04 1.03 2.07 1.67 3.3 2.14 1.18.46 2.53.78 4.51.87s2.61.11 7.66.11 5.68-.02 7.67-.11c1.98-.09 3.33-.41 4.51-.87a9.1 9.1 0 0 0 3.29-2.14c1.04-1.03 1.67-2.07 2.15-3.29.45-1.18.77-2.53.86-4.51s.11-2.61.11-7.66c0-5.04-.02-5.68-.11-7.66s-.41-3.33-.86-4.51a9.2 9.2 0 0 0-2.15-3.29 9.1 9.1 0 0 0-3.29-2.14c-1.19-.46-2.54-.77-4.52-.86s-2.61-.11-7.66-.11zm-1.67 3.34h1.67c4.96 0 5.55.02 7.51.11 1.81.08 2.79.39 3.45.64.87.34 1.48.74 2.14 1.39.65.65 1.05 1.27 1.39 2.14.25.65.55 1.63.64 3.44.09 1.96.1 2.55.1 7.51s-.01 5.54-.1 7.5c-.09 1.81-.39 2.8-.64 3.45-.34.87-.74 1.48-1.39 2.13-.66.65-1.27 1.06-2.14 1.39-.66.26-1.64.56-3.45.64-1.96.09-2.55.11-7.51.11-4.97 0-5.56-.02-7.52-.11-1.81-.08-2.79-.38-3.45-.64-.87-.33-1.49-.74-2.14-1.39a5.75 5.75 0 0 1-1.39-2.13c-.25-.66-.56-1.64-.64-3.45-.09-1.96-.11-2.55-.11-7.51s.02-5.54.11-7.5c.08-1.81.39-2.8.64-3.45.34-.87.74-1.49 1.39-2.14s1.27-1.05 2.14-1.39c.66-.25 1.64-.55 3.45-.64 1.72-.07 2.38-.09 5.85-.1m11.59 3.09a2.226 2.226 0 1 0 0 4.45c1.23 0 2.23-.99 2.23-2.22s-1-2.23-2.23-2.23m-9.92 2.6c-5.28 0-9.55 4.27-9.55 9.54s4.27 9.54 9.55 9.54c5.27 0 9.54-4.27 9.54-9.54s-4.27-9.54-9.54-9.54m0 3.35c3.42 0 6.19 2.77 6.19 6.19s-2.77 6.19-6.19 6.19a6.19 6.19 0 1 1 0-12.38"/></g></svg>

<svg width="50.000000" height="50.000000" viewBox="0 0 50 50" fill="none" xmlns="http://www.w3.org/2000/svg" xmlns:xlink="http://www.w3.org/1999/xlink">
	<desc>
			Created with Pixso.
	</desc>
	<defs>
		<radialGradient gradientTransform="translate(48.3855 23.4356) rotate(164.25) scale(31.9471 23.0164)" cx="0.000000" cy="0.000000" r="1.000000" id="paint_radial_205_58_0" gradientUnits="userSpaceOnUse">
			<stop stop-color="#FF005F"/>
			<stop offset="1.000000" stop-color="#FC01D8"/>
		</radialGradient>
		<radialGradient gradientTransform="translate(13.2809 53.851) rotate(-90) scale(39.911 42.3447)" cx="0.000000" cy="0.000000" r="1.000000" id="paint_radial_205_59_0" gradientUnits="userSpaceOnUse">
			<stop stop-color="#FFCC00"/>
			<stop offset="0.124200" stop-color="#FFCC00"/>
			<stop offset="0.567200" stop-color="#FE4A05"/>
			<stop offset="0.694200" stop-color="#FF0F3F"/>
			<stop offset="1.000000" stop-color="#FE0657" stop-opacity="0.000000"/>
		</radialGradient>
		<radialGradient gradientTransform="translate(26.2635 49.2948) rotate(-59.8703) scale(16.5035 21.4858)" cx="0.000000" cy="0.000000" r="1.000000" id="paint_radial_205_60_0" gradientUnits="userSpaceOnUse">
			<stop stop-color="#FFCC00"/>
			<stop offset="1.000000" stop-color="#FFCC00" stop-opacity="0.000000"/>
		</radialGradient>
		<radialGradient gradientTransform="translate(6.78395 2.03599) rotate(164.274) scale(31.5928 10.7637)" cx="0.000000" cy="0.000000" r="1.000000" id="paint_radial_205_61_0" gradientUnits="userSpaceOnUse">
			<stop stop-color="#780CFF"/>
			<stop offset="1.000000" stop-color="#820BFF" stop-opacity="0.000000"/>
		</radialGradient>
	</defs>
	<mask id="mask205_56" mask-type="alpha" maskUnits="userSpaceOnUse" x="0.000000" y="0.000000" width="50.000000" height="50.000000">
		<rect id="rect" width="50.000000" height="50.000000" fill="#000000" fill-opacity="1.000000"/>
	</mask>
	<g mask="url(#mask205_56)">
		<path id="path" d="M25 0C14.57 0 11.51 0.01 10.92 0.06C8.78 0.23 7.45 0.57 5.99 1.29C4.87 1.85 3.99 2.49 3.12 3.4C1.53 5.04 0.57 7.07 0.23 9.48C0.06 10.65 0.01 10.89 0 16.86C-0.01 18.85 0 21.47 0 24.99C0 35.42 0.01 38.47 0.06 39.06C0.23 41.14 0.56 42.46 1.25 43.89C2.57 46.64 5.1 48.7 8.08 49.47C9.11 49.73 10.24 49.88 11.71 49.95C12.33 49.98 18.64 50 24.95 50C31.26 50 37.58 49.99 38.18 49.96C39.87 49.88 40.86 49.75 41.94 49.46C44.94 48.69 47.42 46.66 48.77 43.88C49.45 42.48 49.79 41.11 49.95 39.14C49.98 38.71 50 31.84 50 24.98C50 18.12 49.98 11.26 49.95 10.83C49.79 8.82 49.44 7.47 48.74 6.05C48.17 4.88 47.53 4.01 46.6 3.11C44.95 1.53 42.93 0.57 40.52 0.22C39.35 0.06 39.12 0.01 33.14 0L25 0Z" fill="url(#paint_radial_205_58_0)" fill-opacity="1.000000" fill-rule="nonzero"/>
		<path id="path" d="M25 0C14.57 0 11.51 0.01 10.92 0.06C8.78 0.23 7.45 0.57 5.99 1.29C4.87 1.85 3.99 2.49 3.12 3.4C1.53 5.04 0.57 7.07 0.23 9.48C0.06 10.65 0.01 10.89 0 16.86C-0.01 18.85 0 21.47 0 24.99C0 35.42 0.01 38.47 0.06 39.06C0.23 41.14 0.56 42.46 1.25 43.89C2.57 46.64 5.1 48.7 8.08 49.47C9.11 49.73 10.24 49.88 11.71 49.95C12.33 49.98 18.64 50 24.95 50C31.26 50 37.58 49.99 38.18 49.96C39.87 49.88 40.86 49.75 41.94 49.46C44.94 48.69 47.42 46.66 48.77 43.88C49.45 42.48 49.79 41.11 49.95 39.14C49.98 38.71 50 31.84 50 24.98C50 18.12 49.98 11.26 49.95 10.83C49.79 8.82 49.44 7.47 48.74 6.05C48.17 4.88 47.53 4.01 46.6 3.11C44.95 1.53 42.93 0.57 40.52 0.22C39.35 0.06 39.12 0.01 33.14 0L25 0Z" fill="url(#paint_radial_205_59_0)" fill-opacity="1.000000" fill-rule="nonzero"/>
		<path id="path" d="M25 0C14.57 0 11.51 0.01 10.92 0.06C8.78 0.23 7.45 0.57 5.99 1.29C4.87 1.85 3.99 2.49 3.12 3.4C1.53 5.04 0.57 7.07 0.23 9.48C0.06 10.65 0.01 10.89 0 16.86C-0.01 18.85 0 21.47 0 24.99C0 35.42 0.01 38.47 0.06 39.06C0.23 41.14 0.56 42.46 1.25 43.89C2.57 46.64 5.1 48.7 8.08 49.47C9.11 49.73 10.24 49.88 11.71 49.95C12.33 49.98 18.64 50 24.95 50C31.26 50 37.58 49.99 38.18 49.96C39.87 49.88 40.86 49.75 41.94 49.46C44.94 48.69 47.42 46.66 48.77 43.88C49.45 42.48 49.79 41.11 49.95 39.14C49.98 38.71 50 31.84 50 24.98C50 18.12 49.98 11.26 49.95 10.83C49.79 8.82 49.44 7.47 48.74 6.05C48.17 4.88 47.53 4.01 46.6 3.11C44.95 1.53 42.93 0.57 40.52 0.22C39.35 0.06 39.12 0.01 33.14 0L25 0Z" fill="url(#paint_radial_205_60_0)" fill-opacity="1.000000" fill-rule="nonzero"/>
		<path id="path" d="M25 0C14.57 0 11.51 0.01 10.92 0.06C8.78 0.23 7.45 0.57 5.99 1.29C4.87 1.85 3.99 2.49 3.12 3.4C1.53 5.04 0.57 7.07 0.23 9.48C0.06 10.65 0.01 10.89 0 16.86C-0.01 18.85 0 21.47 0 24.99C0 35.42 0.01 38.47 0.06 39.06C0.23 41.14 0.56 42.46 1.25 43.89C2.57 46.64 5.1 48.7 8.08 49.47C9.11 49.73 10.24 49.88 11.71 49.95C12.33 49.98 18.64 50 24.95 50C31.26 50 37.58 49.99 38.18 49.96C39.87 49.88 40.86 49.75 41.94 49.46C44.94 48.69 47.42 46.66 48.77 43.88C49.45 42.48 49.79 41.11 49.95 39.14C49.98 38.71 50 31.84 50 24.98C50 18.12 49.98 11.26 49.95 10.83C49.79 8.82 49.44 7.47 48.74 6.05C48.17 4.88 47.53 4.01 46.6 3.11C44.95 1.53 42.93 0.57 40.52 0.22C39.35 0.06 39.12 0.01 33.14 0L25 0Z" fill="url(#paint_radial_205_61_0)" fill-opacity="1.000000" fill-rule="nonzero"/>
		<path id="path" d="M25.01 6.42C19.96 6.42 19.32 6.44 17.34 6.53C15.36 6.62 14.01 6.93 12.83 7.39C11.61 7.86 10.57 8.5 9.53 9.53C8.5 10.57 7.87 11.6 7.39 12.82C6.93 14 6.61 15.35 6.53 17.33C6.44 19.31 6.41 19.95 6.41 24.99C6.41 30.04 6.44 30.67 6.53 32.65C6.62 34.63 6.93 35.98 7.39 37.16C7.86 38.38 8.5 39.42 9.53 40.45C10.57 41.48 11.6 42.12 12.83 42.59C14.01 43.05 15.36 43.37 17.34 43.46C19.32 43.55 19.95 43.57 25 43.57C30.05 43.57 30.68 43.55 32.67 43.46C34.65 43.37 36 43.05 37.18 42.59C38.4 42.12 39.44 41.48 40.47 40.45C41.51 39.42 42.14 38.38 42.62 37.16C43.07 35.98 43.39 34.63 43.48 32.65C43.57 30.67 43.59 30.04 43.59 24.99C43.59 19.95 43.57 19.31 43.48 17.33C43.39 15.35 43.07 14 42.62 12.82C42.14 11.6 41.51 10.57 40.47 9.53C39.44 8.5 38.4 7.86 37.18 7.39C35.99 6.93 34.64 6.62 32.66 6.53C30.68 6.44 30.05 6.42 25 6.42L25.01 6.42ZM23.34 9.76C23.83 9.76 24.38 9.76 25.01 9.76C29.97 9.76 30.56 9.78 32.52 9.87C34.33 9.95 35.31 10.26 35.97 10.51C36.84 10.85 37.45 11.25 38.11 11.9C38.76 12.55 39.16 13.17 39.5 14.04C39.75 14.69 40.05 15.67 40.14 17.48C40.23 19.44 40.24 20.03 40.24 24.99C40.24 29.95 40.23 30.53 40.14 32.49C40.05 34.3 39.75 35.29 39.5 35.94C39.16 36.81 38.76 37.42 38.11 38.07C37.45 38.72 36.84 39.13 35.97 39.46C35.31 39.72 34.33 40.02 32.52 40.1C30.56 40.19 29.97 40.21 25.01 40.21C20.04 40.21 19.45 40.19 17.49 40.1C15.68 40.02 14.7 39.72 14.04 39.46C13.17 39.13 12.55 38.72 11.9 38.07C11.25 37.42 10.85 36.81 10.51 35.94C10.26 35.28 9.95 34.3 9.87 32.49C9.78 30.53 9.76 29.94 9.76 24.98C9.76 20.02 9.78 19.44 9.87 17.48C9.95 15.67 10.26 14.68 10.51 14.03C10.85 13.16 11.25 12.54 11.9 11.89C12.55 11.24 13.17 10.84 14.04 10.5C14.7 10.25 15.68 9.95 17.49 9.86C19.21 9.79 19.87 9.77 23.34 9.76ZM34.93 12.85C33.7 12.85 32.7 13.84 32.7 15.08C32.7 16.31 33.7 17.3 34.93 17.3C36.16 17.3 37.16 16.31 37.16 15.08C37.16 13.85 36.16 12.85 34.93 12.85ZM25.01 15.45C19.73 15.45 15.46 19.72 15.46 24.99C15.46 30.26 19.73 34.53 25.01 34.53C30.28 34.53 34.55 30.26 34.55 24.99C34.55 19.72 30.28 15.45 25.01 15.45ZM25.01 18.8C28.43 18.8 31.2 21.57 31.2 24.99C31.2 28.41 28.43 31.18 25.01 31.18C21.58 31.18 18.81 28.41 18.81 24.99C18.81 21.57 21.58 18.8 25.01 18.8Z" fill="#FFFFFF" fill-opacity="1.000000" fill-rule="nonzero"/>
	</g>
</svg>
